projects/seb-pictograms/svg/regular/103-Picto-Regular_black.svg

<svg xmlns="http://www.w3.org/2000/svg" viewBox="0 0 170 170"><path d="M87.1 5l-4.2 4.2 14.2 14.3H85a61.1 61.1 0 00-43.2 104.3l4.2-4.2a55.1 55.1 0 0139-94.1h12.1L82.9 43.7l4.2 4.3 21.5-21.5zm59 80.4a60.7 60.7 0 00-17.9-43.2l-4.2 4.2a55.1 55.1 0 01-39 94.1H72.9l14.3-14.3-4.3-4.2-21.5 21.5L82.9 165l4.2-4.2-14.2-14.3H85a61.2 61.2 0 0061.1-61.1z"/></svg>

<svg id="PIKTO_REGULAR" xmlns="http://www.w3.org/2000/svg" viewBox="0 0 170 170"><title>regular_black</title><path d="M87.1,5,82.9,9.2,97.1,23.5H85A61.1,61.1,0,0,0,41.8,127.8l4.2-4.2A55.1,55.1,0,0,1,85,29.5H97.1L82.9,43.7,87.1,48l21.5-21.5Z"/><path d="M146.1,85.4a60.7,60.7,0,0,0-17.9-43.2L124,46.4a55.1,55.1,0,0,1-39,94.1H72.9l14.3-14.3L82.9,122,61.4,143.5,82.9,165l4.2-4.2L72.9,146.5H85A61.2,61.2,0,0,0,146.1,85.4Z"/></svg>
